!!!COM: Robert Schumann
!!!CNT: Deutsch
!!!TXO: Deutsch
!!!OTL: Der Knabe mit dem Wunderhorn
!!!LYR: Geibel
!!!OPR: Drei Gedichte
!!!OPS: Op.30
!!!ONM: No. 1
!!!ENC: Ben Fuhrman
!!!YOR: Schumann Lieder - Max Friedlaender, ed.,
!!!YOR: New York: C. F. Peters, Vol. 2
!!!ODT: 1840/
!!NB: Vocal melody and text only encoded.
!!NB: First instance of melodic material only encoded.
**kern	**silbe
*clefG2	*
*k[f#c#g#]	*
*M6/8	*
!!created: 6/15/06 10:15
!!proofed and posted: 6/15/06 10:15
!!edit time: 85 minutes
=2	=2
4r	.
8r	.
8r	.
8r	.
{8e	{Ich
=3	=3
4a	bin
8a	ein
8.g#	lust'-
16f#	-ger
8g#	Ge-
=4	=4
4b	-sel-
8a	-le,
4.cc#	wer
=5	=5
4b	ko2nnt'
8b	auf
4b	Er-
8d#	-den
=6	=6
8.f	fro2h-
16e	-lich-
8e	-er
4e}	sein?}
{8gn	{Mein
=7	=7
8.gn	Ro2ss-
16gn	-lein
8gn	so
8gn	hel-
8f#	-le,
8e	so
=8	=8
4f#	hel-
8f#}	-le,}
8r	.
8r	.
{8f#	{das
=9	=9
8f#	tra2gt
8a	mich
8dd	mit
4ff#	Win-
8cc#	-des-
=10	=10
4dd	-schnel-
8dd}	-le}
8r	.
8r	.
{8d	{ins
=11	=11
8d	blu2-
8f#	-hen-
8b	-de
8.dd	Le-
16g#	-ben
8g#	hin-
=12	=12
4a	-ein,
8b	tra-
[4.b	-rah,
=13	=13
4b]	|
8f#	ins
8.g#	Le-
16f#	-ben
8e	hin-
=14	=14
2.a}	-ein!}
=15	=15
4r	.
8r	.
8r	.
8r	.
{8e	{Es
=16	=16
4a	to2nt
8a	an
(8.g#	mei-
16f#)	|
8g#	-nem
=17	=17
4b	Mun-
8a}	-de}
8r	.
8r	.
{8cc#	{ein
=18	=18
8.b	sil-
16b	-ber
8b	nes
4b	Horn
8d#	von
=19	=19
(qd#	su2-
4f#)	|
8e	-ssem
4e	Schall,
8gn	es
=20	=20
4gn	to2nt
8gn	wohl
(8.gn	man
16f#)	|
8e	-che
=21	=21
4f#	Stun-
8f#}	-de;}
8r	.
8r	.
{8f#	{von
=22	=22
(8f#	Fels
8a)	|
8dd	und
8.ff#	Wald
16cc#	in
8cc#	der
=23	=23
4dd	Run-
8dd}	-de}
8r	.
8r	.
{8d	{ant-
=24	=24
8d	-wor-
8f#	-tet
8b	der
4dd	Wi-
8g#	-der-
=25	=25
4a	-hall,
8b	tra-
[4.b	-rah,
=26	=26
4b]	|
8f#	der
(8.g	Wi-
16f#)	|
8e	-der-
=27	=27
4a}	-hall.}
8r	.
8r	.
8r	.
{8a	{Und
=28	=28
*k[f#c#]	*
8.a	komm'
16a	ich
8f#	zu
8dd	fest-
8dd	-li-
8b	-chen
=29	=29
(4a	Ta2n-
8f#)	|
4d}	-zen,}
{8B	{zu
=30	=30
4A	Scherz
8d	und
4e	Spiel
8g	im
=31	=31
8.f#	son-
16g	-ni-
8a	-gen
4e}	Wald,}
{8a	{wo
=32	=32
8.a	schmach-
16a	-ten-
8f#	-de
8dd	Au-
8dd	-gen
8b	mir
=33	=33
(4a	gla2n-
8f#)	|
4d	-zen
8B	und
=34	=34
8A	Blu-
8A	-men
8d	den
8.e	Be-
16f#	-cher
8g	be-
=35	=35
(4f#	-kra2n-
8a)	|
4e}	-zen,}
8r	.
=36	=36
8r	.
8r	.
{8c#	{da
8.c#	schwig'
16d#	ich
8e#	vom
=37	=37
8.f#	Ross
16f#	mich
8g#	als-
4a}	-bald,}
{8en	{tra-
=38	=38
4e	-rah,
8e	da
8e	schwing'
8f#	ich
8g#	vom
=39	=39
8a	Ross
8a	mich
8b	als-
(4cc#	-bald.
qa)}	|}
{8a	{Suss
=40	=40
8.a	lockt
16a	die
8f#	Gi-
8dd	-tar-
8dd	-re
8b	zum
=41	=41
(4a	Rei-
8f#)	|
4d}	-gen,}
{8B	{ich
=42	=42
8A	ku2s-
8A	-se
8d	die
8e	Mad-
8e	-chen,
8g	ich
=43	=43
8.f#	trin-
16g	-ke
8a	den
4e}	Wein;}
{8a	{doch
=44	=44
8a	will
8a	hin-
8f#	-ter
8.dd	blu2-
16dd	-hen-
8b	-den
=45	=45
(4a	Zwei-
8f#)	|
4d}	-gen}
{8B	{die
=46	=46
8A	pur-
8A	-pur-
8d	-ne
8e	Son-
8e	-ne
8g	sich
=47	=47
(4f#	nei-
8a)	|
4e}	-gen,}
8r	.
=48	=48
8r	.
8r	.
{8g#	{da
(8.g#	muss
16a#)	|
8b#	ge-
=49	=49
4cc#	-schie-
8c#	-den
4c#	sein,
8b	tra-
=50	=50
4b	-rah,
8b	da
(8.b	muss
16cc#)	|
8dd#	ge-
=51	=51
4ee	-schie-
8e	-den
[4.e	sein!
=52	=52
2.e_	|
=53	=53
4e]}	|}
8r	.
8r	.
8r	.
{8e	{Es
=54	=54
*k[f#c#g#]	*
8.a	zieht
16a	mich
8a	hin-
8g#	-aus
8f#	in
8g#	die
=55	=55
8a	Fer-
8a}	-ne,}
8r	.
8r	.
{4cc#	{ich
=56	=56
8b	ge-
8b	-be
8b	dem
8.b	flu2ch-
16d#	-ti-
8d#	-gen
=57	=57
8.e	Ros-
16e	-se
8e	den
4e}	Sporn,}
{8gn	{A-
=58	=58
4gn	-de!
8gn	Wohl
8gn	blieb'
8f#	ich
8e#	noch
=59	=59
4f#	ger-
8f#}	-ne,}
8r	.
8r	.
{8f#	{doch
=60	=60
8f#	win-
8a	-ken
8dd	schon
4ff#	and-
8cc#	-re
=61	=61
4dd	Ster-
8dd}	-ne,}
8r	.
8r	.
{8d	{und
=62	=62
8d	gru2s-
8f#	-send
8b	ver-
8.dd	-to2-
16g#	-net
8g#	das
=63	=63
4a}	Horn,}
{8b	{tra-
[4.b	-rah,
=64	=64
4.b_	|
4b]	|
8ccn	trah-
=65	=65
4ccn	-rah,
8cc#	tra-
4cc#}	-rah,}
{8dd#	{und
=66	=66
8.ee	gru2s-
16ee	-send
8ee	ver-
8ee	-to2-
8ddn	-net
8b	das
=67	=67
4a}	Horn.}
8r	.
4r	.
8r	.
!! rest to measure 69
=69	=69
8r	.
8r	.
{8a	{Und
8cc#	gru2s-
8cc#	-send,
8a	und
=70	=70
8e	gru2s-
8e	-send
8c#	ver-
8d	-to2-
8B	-net
8e	das
=71	=71
4c#}	Horn.}
8r	.
4r	.
8r	.
!! rest to measure 73
=73	=73
8r	.
8r	.
{8a	{Und
8cc#	gru2-
8cc#	-ssend,
8a	und
=74	=74
8e	gru2-
8e	-ssend
8c#	ver-
8d	-to2-
8B	-net
8e	das
=75	=75
8c#}	Horn.}
8r	.
8r	.
4r	.
8r	.
=76	=76
4r	.
8r	.
4r	.
{8e	{A
=77	=77
[2.a	-de!
=78	=78
2.a_	|
=79	=79
4a]}	|}
8r	.
4r	.
8r	.
==	==
*-	*-
